X:2310390
T:Fiddler's Waltz
S:Champlain Valley Festival, 1988, Jam session with April Limber and friends.
H:I recorded it from a jam session. When they were done I asked April and
H:she said it was the Fiddler's Waltz. I haven't been able to find anything
H:else out about it.
N:From NH Country Dance (URL below), along with many New England, Canadian & Swedish
N:tunes, and resources for abc notation and New England traditional music and dance.
%
N: Note #1: To preserve formatting (font, spacing, etc.), use the
N: file header at the URL below; just follow accompanying instructions.
%
N: Note #2: This abc code is optimized for use with abcm2ps, which is used by
N: EasyABC and other abc apps. To abc2svg for display or printing look to see if there
N: is a file optimized for abc2svg. If not you may need to adjust the spacing in places.
%
Z:abc-transcription Peter Yarensky. I rely heavily on careful listening to the
Z:named sources aided by software to hear details. While not perfect, known
Z:substantial differences from other written sources receive careful attention.
Z:abc-copyright Peter Yarensky. You may reproduce this tune freely but
Z:please include the entire abc file including all the notes.
%%writefields HQSD
F:Tunes Home Page - https://fiddle-tunes.nhcountrydance.com/
F:abc Header & its Usage - https://fiddle-tunes.nhcountrydance.com/header-page/
M:3/4
L:1/8
R:Waltz
G:Couples Dances ~ Waltzes
N: Tune Tags ~ Waltz, New England Repertoire
K:Bb
de |\
"Bb" f2 b2- bf | "Bb" d4 cd   | "Eb" e2 ge ((3BeB) | "C" G4 AG |\
"F" F2 A2- Ac  | "F" a2 g2 a2 |1 "Bb" b2 fg fe     | "Bb" d4 :|2\
"Bb" b2>a2 bc' | "Bb" b2      |]
F2>E2 |\
"Bb" D4 DF     | "Bb" d4 cd   | "Eb" e2 g2 G2      | "C" c4 cA |\
"F" F2 A2 c2   |"F"  a2 g2 a2 | "Bb" b2 fg fe      | "Bb" d4 FE ||
"Bb" B,2 D2 F2 | "Bb" d4 cd   | "Eb" e2 g2 G2      | "C" c4 cA |\
"F" F2 A2 c2   | "F" a2 g2 a2 | "Bb" b2>a2 bc'     | "Bb" b4 |]

